svg/color/perp.svg

<svg width="64" height="65" viewBox="0 0 64 65" fill="none" xmlns="http://www.w3.org/2000/svg">
<g clip-path="url(#clip0)">
<path d="M64 32.253C64 49.926 49.673 64.253 32 64.253C14.327 64.253 0 49.926 0 32.253C0 14.58 14.327 0.252991 32 0.252991C49.673 0.252991 64 14.58 64 32.253Z" fill="white"/>
<path fill-rule="evenodd" clip-rule="evenodd" d="M23.1149 15.0194C25.4678 12.7146 29.2318 12.7146 31.5847 15.0194L37.1548 20.476C39.5773 22.849 39.5773 26.7491 37.1548 29.1221L27.4473 38.6315L34.4093 45.4515C35.7358 46.7508 35.7577 48.8794 34.4584 50.2058C33.159 51.5323 31.0303 51.5542 29.704 50.2549L12.8378 33.733C10.4154 31.3599 10.4154 27.4598 12.8378 25.0868L23.1149 15.0194ZM22.6429 33.9251L31.9591 24.799L27.3497 20.2838L18.0336 29.4099L22.6429 33.9251Z" fill="#3CEAAA"/>
<path fill-rule="evenodd" clip-rule="evenodd" d="M37.1223 19.6303C39.4751 17.3255 43.2391 17.3255 45.592 19.6303L51.1622 25.0868C53.5846 27.4598 53.5846 31.3599 51.1622 33.7329L34.2961 50.2549C32.9696 51.5543 30.841 51.5323 29.5417 50.2058C28.2423 48.8795 28.2643 46.7508 29.5906 45.4514L36.5526 38.6315L31.5521 33.7329C29.1296 31.3599 29.1296 27.4598 31.5521 25.0868L37.1223 19.6303ZM41.357 33.9251L45.9664 29.4099L41.357 24.8946L36.7478 29.4099L41.357 33.9251Z" fill="#03BCE4"/>
<path opacity="0.95" d="M36.7454 29.4213L31.8489 24.7706L27.1526 29.3829L31.9327 34.1385L36.7454 29.4213Z" fill="#00A4E1"/>
</g>
<defs>
<clipPath id="clip0">
<rect width="64" height="64" fill="white" transform="translate(0 0.252991)"/>
</clipPath>
</defs>
</svg>

<svg width="64" height="65" viewBox="0 0 64 65" fill="none" xmlns="http://www.w3.org/2000/svg"><g clip-path="url(#clip0)"><path d="M64 32.253c0 17.673-14.327 32-32 32-17.673 0-32-14.327-32-32 0-17.673 14.327-32 32-32 17.673 0 32 14.327 32 32z" fill="#fff"/><path fill-rule="evenodd" clip-rule="evenodd" d="M23.115 15.02a6.052 6.052 0 018.47 0l5.57 5.456a6.052 6.052 0 010 8.646l-9.708 9.51 6.962 6.82a3.362 3.362 0 11-4.705 4.803L12.838 33.733a6.052 6.052 0 010-8.646l10.277-10.068zm-.472 18.905l9.316-9.126-4.61-4.515-9.315 9.126 4.609 4.515z" fill="#3CEAAA"/><path fill-rule="evenodd" clip-rule="evenodd" d="M37.122 19.63a6.052 6.052 0 018.47 0l5.57 5.457a6.052 6.052 0 010 8.646L34.296 50.255a3.362 3.362 0 11-4.705-4.804l6.962-6.82-5-4.898a6.052 6.052 0 010-8.646l5.57-5.457zm4.235 14.295l4.61-4.515-4.61-4.515-4.61 4.515 4.61 4.515z" fill="#03BCE4"/><path opacity=".95" d="M36.745 29.421l-4.896-4.65-4.696 4.612 4.78 4.756 4.812-4.718z" fill="#00A4E1"/></g><defs><clipPath id="clip0"><path fill="#fff" transform="translate(0 .253)" d="M0 0h64v64H0z"/></clipPath></defs></svg>
